X:1
T:60 Lessons for 2 Guitars, Op.168 - Joseph Küffner (1776 - 1856)
T:Leçon No.48
T:60 Lessons for 2 Guitars, Op.168 "à l'usage des commençants"
T:Joseph Küffner (1776 - 1856)
%%score { ( 1 2 ) ( 3 4 ) } { ( 5 6 ) ( 7 8 ) }
L:1/8
Q:1/4=120
M:3/4
K:A
V:1 treble-8 nm="Classical Guitar"
V:2 treble-8 
V:3 tab stafflines=6 strings=E2,A2,D3,G3,B3,E4 nostems nm="Guitare classique [Tablature]"
V:4 tab stafflines=6 strings=E2,A2,D3,G3,B3,E4 nostems 
V:5 treble-8 nm="Guitare classique"
V:6 treble-8 
V:7 tab stafflines=6 strings=E2,A2,D3,G3,B3,E4 nostems nm="Guitare classique [Tablature]"
V:8 tab stafflines=6 strings=E2,A2,D3,G3,B3,E4 nostems 
V:1
"^Ländler""_" e2 | (3(efe) .c.d e2 | (3(efe) .c.d e2 | d2 (Bc).d.B | c2 A2 e2 | (3(efe) .c.d e2 | %6
 (3(efe) .c.d e2 | d2 (Bc).d.B | [A,A]2 z2 ::"_" (BA) | GBeGBe | (gf) !>!f4 | ABfABf | %13
 (fe) !>!e4 | GBeGBe | (gf) !>!f4 | ABfABf | !arpeggio![E,GBe]2 z2"_" e2 | (3(efe) .c.d e2 | %19
 (3(efe) .c.d e2 | d2 (Bc).d.B | c2 A2 e2 | (3(efe) .c.d e2 | (3(efe) .c.d e2 | d2 (Bc).d.B | %25
 [A,A]2 z2 :| %26
V:2
 x2 | x6 | x6 | x6 | x6 | x6 | x6 | x6 | x4 :: x2 | E,4 z2 | A,4 z2 | B,4 z2 | E,4 z2 | E,4 z2 | %15
 A,4 z2 | B,4 z2 | x6 | x6 | x6 | x6 | x6 | x6 | x6 | x6 | x4 :| %26
V:3
 !1!E2 | (3(!1!E !1!F !1!E) !2!C !2!D !1!E2 | (3(!1!E !1!F !1!E) !2!C !2!D !1!E2 | %3
 !2!D2 (!2!B, !2!C) !2!D !2!B, | !2!C2 !3!A,2 !1!E2 | (3(!1!E !1!F !1!E) !2!C !2!D !1!E2 | %6
 (3(!1!E !1!F !1!E) !2!C !2!D !1!E2 | !2!D2 (!2!B, !2!C) !2!D !2!B, | [!5!A,,!3!A,]2 x2 :: %9
 (!3!B, !3!A,) | !3!G, !2!B, !1!E !3!G, !2!B, !1!E | (!1!G !1!F) !1!F4 | %12
 !3!A, !2!B, !1!F !3!A, !2!B, !1!F | (!1!F !1!E) !1!E4 | !3!G, !2!B, !1!E !3!G, !2!B, !1!E | %15
 (!1!G !1!F) !1!F4 | !3!A, !2!B, !1!F !3!A, !2!B, !1!F | [!6!E,,!3!G,!2!B,!1!E]2 x2 !1!E2 | %18
 (3(!1!E !1!F !1!E) !2!C !2!D !1!E2 | (3(!1!E !1!F !1!E) !2!C !2!D !1!E2 | %20
 !2!D2 (!2!B, !2!C) !2!D !2!B, | !2!C2 !3!A,2 !1!E2 | (3(!1!E !1!F !1!E) !2!C !2!D !1!E2 | %23
 (3(!1!E !1!F !1!E) !2!C !2!D !1!E2 | !2!D2 (!2!B, !2!C) !2!D !2!B, | [!5!A,,!3!A,]2 x2 :| %26
V:4
 x2 | x6 | x6 | x6 | x6 | x6 | x6 | x6 | x4 :: x2 | !6!E,,4 x2 | !5!A,,4 x2 | !5!B,,4 x2 | %13
 !6!E,,4 x2 | !6!E,,4 x2 | !5!A,,4 x2 | !5!B,,4 x2 | x6 | x6 | x6 | x6 | x6 | x6 | x6 | x6 | x4 :| %26
V:5
"_" c2 | (3(cdc) .A.B c2 | (3(cdc) .A.B c2 | z2 [EGd]2 [EGd]2 | z2 [EAc]2 [EAc]2 | %5
 (3(cdc) .A.B c2 | (3(cdc) .A.B c2 | z2 [EGd]2 [EGd]2 | A,2 [EAc]2 :: z2 | %10
"_" [E,EGB]2 z2 [E,EGB]2 | [A,FAc] z !>![A,FAc]4 | [B,^DAB]2 z2 [B,DAB]2 | [E,EGB] z !>![E,EGB]4 | %14
 [E,EGB]2 z2 [E,EGB]2 | [A,FAc] z !>![A,FAc]4 | [B,^DAB]2 z2 [B,DAB]2 | %17
 [EGB]2!>(! [Ac]2 [Bd]2!>)! | (3(cdc) .A.B c2 | (3(cdc) .A.B c2 | z2 [EGd]2 [EGd]2 | %21
 z2 [EAc]2 [EAc]2 | (3(cdc) .A.B c2 | (3(cdc) .A.B c2 | z2 [EGd]2 [EGd]2 | A,2 [EAc]2 :| %26
V:6
 x2 | A,6 | A,6 | E,6 | A,6 | A,6 | A,6 | E,6 | x4 :: x2 | x6 | x6 | x6 | x6 | x6 | x6 | x6 | E,6 | %18
 A,6 | A,6 | E,6 | A,6 | A,6 | A,6 | E,6 | x4 :| %26
V:7
 !2!C2 | (3(!2!C !2!D !2!C) !3!A, !2!B, !2!C2 | (3(!2!C !2!D !2!C) !3!A, !2!B, !2!C2 | %3
 x2 [!4!E,!3!G,!2!D]2 [!4!E,!3!G,!2!D]2 | x2 [!4!E,!3!A,!2!C]2 [!4!E,!3!A,!2!C]2 | %5
 (3(!2!C !2!D !2!C) !3!A, !2!B, !2!C2 | (3(!2!C !2!D !2!C) !3!A, !2!B, !2!C2 | %7
 x2 [!4!E,!3!G,!2!D]2 [!4!E,!3!G,!2!D]2 | !5!A,,2 [!4!E,!3!A,!2!C]2 :: x2 | %10
 [!6!E,,!4!E,!3!G,!2!B,]2 x2 [!6!E,,!4!E,!3!G,!2!B,]2 | %11
 [!5!A,,!4!F,!3!A,!2!C] x [!5!A,,!4!F,!3!A,!2!C]4 | %12
 [!5!B,,!4!^D,!3!A,!2!B,]2 x2 [!5!B,,!4!D,!3!A,!2!B,]2 | %13
 [!6!E,,!4!E,!3!G,!2!B,] x [!6!E,,!4!E,!3!G,!2!B,]4 | %14
 [!6!E,,!4!E,!3!G,!2!B,]2 x2 [!6!E,,!4!E,!3!G,!2!B,]2 | %15
 [!5!A,,!4!F,!3!A,!2!C] x [!5!A,,!4!F,!3!A,!2!C]4 | %16
 [!5!B,,!4!^D,!3!A,!2!B,]2 x2 [!5!B,,!4!D,!3!A,!2!B,]2 | %17
 [!4!E,!3!G,!2!B,]2 [!3!A,!2!C]2 [!3!B,!2!D]2 | (3(!2!C !2!D !2!C) !3!A, !2!B, !2!C2 | %19
 (3(!2!C !2!D !2!C) !3!A, !2!B, !2!C2 | x2 [!4!E,!3!G,!2!D]2 [!4!E,!3!G,!2!D]2 | %21
 x2 [!4!E,!3!A,!2!C]2 [!4!E,!3!A,!2!C]2 | (3(!2!C !2!D !2!C) !3!A, !2!B, !2!C2 | %23
 (3(!2!C !2!D !2!C) !3!A, !2!B, !2!C2 | x2 [!4!E,!3!G,!2!D]2 [!4!E,!3!G,!2!D]2 | %25
 !5!A,,2 [!4!E,!3!A,!2!C]2 :| %26
V:8
 x2 | !5!A,,6 | !5!A,,6 | !6!E,,6 | !5!A,,6 | !5!A,,6 | !5!A,,6 | !6!E,,6 | x4 :: x2 | x6 | x6 | %12
 x6 | x6 | x6 | x6 | x6 | !6!E,,6 | !5!A,,6 | !5!A,,6 | !6!E,,6 | !5!A,,6 | !5!A,,6 | !5!A,,6 | %24
 !6!E,,6 | x4 :| %26

